app/images/icons/blank.svg

<svg xmlns="http://www.w3.org/2000/svg" preserveAspectRatio="xMidYMid" width="36.41" height="37.719"><path d="M35.489 11.742l-17.485 17.64a.914.914 0 01-.396.234l-5.697 1.595a5.076 5.076 0 01-.226.029H7.059a.907.907 0 01-.901-.911c0-.502.404-.909.901-.909h3.94l1.394-5.066a.907.907 0 01.231-.4l.014-.015H7.059a.906.906 0 01-.901-.91c0-.503.404-.91.901-.91h7.384l5.432-5.48H7.059a.906.906 0 01-.901-.91c0-.504.404-.911.901-.911H21.68l8.429-8.503a3.036 3.036 0 014.318 0l1.062 1.071a3.102 3.102 0 010 4.356zM13.718 26.345l-.736 2.677 2.652-.744-1.916-1.933zm15.254-16.308L14.538 24.598l2.827 2.853L31.8 12.889l-2.828-2.852zm5.24-1.364L33.15 7.602a1.241 1.241 0 00-1.766 0l-1.136 1.147 2.828 2.853 1.136-1.147a1.27 1.27 0 000-1.782zm-5.67-2.91a.907.907 0 01-.902-.91V1.98a.17.17 0 00-.168-.17H9.284v5.552c0 1.097-.886 1.99-1.974 1.99H1.807v26.367c0 .093.076.17.168.17h25.497a.17.17 0 00.168-.17V21.817c0-.502.404-.91.902-.91s.902.408.902.91v13.902a1.984 1.984 0 01-1.973 1.991H1.975a1.984 1.984 0 01-1.973-1.991V8.441c0-.241.095-.472.264-.643L7.742.256a.9.9 0 01.639-.267h19.091c1.088 0 1.972.893 1.972 1.991v2.873c0 .502-.404.91-.902.91zM7.478 3.097L3.083 7.532H7.31a.17.17 0 00.168-.17V3.097z" fill="#a3bbc8" fill-rule="evenodd"/></svg>

<svg xmlns="http://www.w3.org/2000/svg" xmlns:xlink="http://www.w3.org/1999/xlink" preserveAspectRatio="xMidYMid" width="36.41" height="37.719" viewBox="0 0 36.41 37.719">
  <defs>
    <style>
      .cls-1 {
        fill: #a3bbc8;
        fill-rule: evenodd;
      }
    </style>
  </defs>
  <path d="M35.489,11.742 L18.004,29.382 C17.894,29.493 17.757,29.573 17.608,29.616 C17.608,29.616 11.916,31.209 11.911,31.211 C11.883,31.218 11.685,31.240 11.685,31.240 L7.059,31.240 C6.562,31.240 6.158,30.832 6.158,30.329 C6.158,29.827 6.562,29.420 7.059,29.420 L10.999,29.420 L12.393,24.354 C12.434,24.203 12.514,24.065 12.624,23.954 L12.638,23.939 L7.059,23.939 C6.562,23.939 6.158,23.532 6.158,23.029 C6.158,22.526 6.562,22.119 7.059,22.119 L14.443,22.119 L19.875,16.639 L7.059,16.639 C6.562,16.639 6.158,16.231 6.158,15.729 C6.158,15.225 6.562,14.818 7.059,14.818 L21.680,14.818 L30.109,6.315 C31.299,5.113 33.237,5.113 34.427,6.315 L35.489,7.386 C36.680,8.586 36.680,10.541 35.489,11.742 ZM13.718,26.345 L12.982,29.022 L15.634,28.278 L13.718,26.345 ZM28.972,10.037 L14.538,24.598 L17.365,27.451 L31.800,12.889 L28.972,10.037 ZM34.212,8.673 L33.150,7.602 C32.907,7.356 32.588,7.233 32.268,7.233 C31.948,7.233 31.628,7.356 31.384,7.602 L30.248,8.749 L33.076,11.602 L34.212,10.455 C34.699,9.963 34.699,9.164 34.212,8.673 ZM28.542,5.763 C28.044,5.763 27.640,5.355 27.640,4.853 L27.640,1.980 C27.640,1.886 27.564,1.810 27.472,1.810 L9.284,1.810 L9.284,7.362 C9.284,8.459 8.398,9.352 7.310,9.352 L1.807,9.352 L1.807,35.719 C1.807,35.812 1.883,35.889 1.975,35.889 L27.472,35.889 C27.564,35.889 27.640,35.812 27.640,35.719 L27.640,21.817 C27.640,21.315 28.044,20.907 28.542,20.907 C29.040,20.907 29.444,21.315 29.444,21.817 L29.444,35.719 C29.444,36.817 28.560,37.710 27.471,37.710 L1.975,37.710 C0.887,37.710 0.002,36.817 0.002,35.719 L0.002,8.441 C0.002,8.200 0.097,7.969 0.266,7.798 L7.742,0.256 C7.912,0.085 8.141,-0.011 8.381,-0.011 L27.472,-0.011 C28.560,-0.011 29.444,0.882 29.444,1.980 L29.444,4.853 C29.444,5.355 29.040,5.763 28.542,5.763 ZM7.478,3.097 L3.083,7.532 L7.310,7.532 C7.402,7.532 7.478,7.455 7.478,7.362 L7.478,3.097 Z" class="cls-1"/>
</svg>
